public/images/present.svg

<svg width="64" height="64" viewBox="0 0 64 64" fill="none" xmlns="http://www.w3.org/2000/svg">
<g clip-path="url(#clip0)">
<path fill-rule="evenodd" clip-rule="evenodd" d="M43.1935 10.6907C44.0412 9.92381 45.4001 10.3246 45.6959 11.4288C45.9145 12.2444 45.4305 13.0827 44.6149 13.3012L38.4956 14.9409L43.1935 10.6907ZM49.1121 10.5134C48.1318 6.85481 43.6296 5.52698 40.8208 8.06806L31.0188 16.9358C29.5585 18.2569 30.8605 20.6481 32.7626 20.1385L45.5302 16.7174C48.2325 15.9933 49.8362 13.2157 49.1121 10.5134Z" fill="#7645D9"/>
<path fill-rule="evenodd" clip-rule="evenodd" d="M30.1885 8.0841C29.8078 6.90274 28.3125 6.54189 27.4348 7.41956C26.7866 8.06782 26.7866 9.11885 27.4348 9.7671L32.2987 14.6309L30.1885 8.0841ZM24.7196 4.70427C27.6275 1.79628 32.5818 2.99187 33.8434 6.90609L38.2461 20.5658C38.902 22.6007 36.3795 24.1424 34.8677 22.6306L24.7196 12.4824C22.5717 10.3345 22.5717 6.85214 24.7196 4.70427Z" fill="#7645D9"/>
<path opacity="0.6" d="M7.27624 34.0431C7.01094 35.0539 5.57594 35.054 5.31064 34.0431L4.51492 31.0112C4.42182 30.6565 4.14478 30.3794 3.79005 30.2863L0.758148 29.4906C-0.252715 29.2253 -0.252717 27.7903 0.758146 27.525L3.79005 26.7293C4.14478 26.6362 4.42182 26.3591 4.51492 26.0044L5.31064 22.9725C5.57594 21.9616 7.01094 21.9616 7.27624 22.9725L8.07196 26.0044C8.16506 26.3591 8.44209 26.6362 8.79682 26.7293L11.8287 27.525C12.8396 27.7903 12.8396 29.2253 11.8287 29.4906L8.79683 30.2863C8.44209 30.3794 8.16506 30.6565 8.07196 31.0112L7.27624 34.0431Z" fill="#53DEE9"/>
<path d="M9.62028 11.6637C9.62343 12.2763 8.81089 12.494 8.5073 11.9619L7.59673 10.3659C7.49019 10.1791 7.29129 10.0643 7.07631 10.0654L5.23882 10.0748C4.62618 10.078 4.40846 9.26545 4.94059 8.96185L6.53663 8.05128C6.72336 7.94475 6.8382 7.74585 6.83709 7.53087L6.82765 5.69337C6.8245 5.08074 7.63704 4.86302 7.94064 5.39515L8.85121 6.99119C8.95774 7.17792 9.15664 7.29275 9.37162 7.29165L11.2091 7.28221C11.8218 7.27906 12.0395 8.0916 11.5073 8.39519L9.9113 9.30576C9.72457 9.4123 9.60974 9.6112 9.61084 9.82618L9.62028 11.6637Z" fill="#53DEE9"/>
<path opacity="0.8" d="M53.8711 15.7857C53.2964 15.6348 53.2964 14.8189 53.8711 14.6681L56.9643 13.8563C57.166 13.8033 57.3235 13.6458 57.3764 13.4441L58.1882 10.351C58.339 9.77623 59.155 9.77623 59.3058 10.351L60.1176 13.4441C60.1705 13.6458 60.3281 13.8033 60.5298 13.8563L63.6229 14.6681C64.1976 14.8189 64.1976 15.6348 63.6229 15.7857L60.5298 16.5975C60.3281 16.6504 60.1705 16.8079 60.1176 17.0096L59.3058 20.1027C59.155 20.6775 58.339 20.6775 58.1882 20.1027L57.3764 17.0096C57.3235 16.8079 57.166 16.6504 56.9643 16.5975L53.8711 15.7857Z" fill="#53DEE9"/>
<path d="M51.0825 29.9055C50.3506 27.1742 47.5431 25.5533 44.8118 26.2851L17.6113 33.5735C14.88 34.3053 13.2591 37.1128 13.9909 39.8441L18.5461 56.8444C19.278 59.5758 22.0855 61.1967 24.8168 60.4648L52.0173 53.1765C54.7487 52.4446 56.3696 49.6371 55.6377 46.9058L51.0825 29.9055Z" fill="url(#paint0_linear)"/>
<path fill-rule="evenodd" clip-rule="evenodd" d="M18.2739 36.0462L45.4744 28.7579C46.84 28.392 48.2438 29.2024 48.6097 30.5681L53.1649 47.5684C53.5309 48.934 52.7204 50.3378 51.3547 50.7037L24.1543 57.9921C22.7886 58.358 21.3848 57.5475 21.0189 56.1819L16.4637 39.1816C16.0978 37.8159 16.9082 36.4122 18.2739 36.0462ZM44.8118 26.2851C47.5431 25.5533 50.3506 27.1742 51.0825 29.9055L55.6377 46.9058C56.3696 49.6371 54.7487 52.4446 52.0173 53.1765L24.8168 60.4648C22.0855 61.1967 19.278 59.5758 18.5461 56.8444L13.9909 39.8441C13.2591 37.1128 14.88 34.3053 17.6113 33.5735L44.8118 26.2851Z" fill="#7645D9"/>
<path d="M35.2297 28.8525L27.1932 31.0059L34.3988 57.8973L42.4353 55.7439L35.2297 28.8525Z" fill="#7645D9"/>
<path d="M54.5173 42.4023L52.364 34.3658L15.1114 44.3476L17.2647 52.3841L54.5173 42.4023Z" fill="#7645D9"/>
<g style="mix-blend-mode:multiply">
<path fill-rule="evenodd" clip-rule="evenodd" d="M39.9263 46.3239L31.8612 48.485L32.1925 49.7213L40.2576 47.5603L39.9263 46.3239ZM29.7018 40.4262L37.7669 38.2651L37.4356 37.0287L29.3706 39.1898L29.7018 40.4262Z" fill="#7645D9"/>
</g>
<path d="M54.8306 24.9448C55.3795 22.8962 54.1638 20.7906 52.1153 20.2417L17.4965 10.9657C15.448 10.4168 13.3424 11.6324 12.7935 13.681L11.8825 17.081C11.3336 19.1295 12.5492 21.2351 14.5978 21.784L49.2165 31.0601C51.265 31.609 53.3707 30.3933 53.9196 28.3448L54.8306 24.9448Z" fill="url(#paint1_linear)"/>
<path fill-rule="evenodd" clip-rule="evenodd" d="M16.8339 13.4384L51.4527 22.7145C52.1356 22.8975 52.5408 23.5993 52.3578 24.2822L51.4468 27.6822C51.2638 28.3651 50.5619 28.7703 49.8791 28.5873L15.2603 19.3113C14.5775 19.1283 14.1723 18.4264 14.3552 17.7436L15.2663 14.3435C15.4492 13.6607 16.1511 13.2555 16.8339 13.4384ZM52.1153 20.2417C54.1638 20.7906 55.3795 22.8962 54.8306 24.9448L53.9196 28.3448C53.3707 30.3933 51.265 31.609 49.2165 31.0601L14.5978 21.784C12.5492 21.2351 11.3336 19.1295 11.8825 17.081L12.7935 13.681C13.3424 11.6324 15.448 10.4168 17.4965 10.9657L52.1153 20.2417Z" fill="#7645D9"/>
<path d="M38.8242 16.6804L30.7877 14.527L27.8889 25.3454L35.9254 27.4988L38.8242 16.6804Z" fill="#7645D9"/>
<g style="mix-blend-mode:multiply">
<path fill-rule="evenodd" clip-rule="evenodd" d="M38.4258 18.0799L30.4257 15.8399L30.7456 14.3999L38.8815 16.6573L38.4258 18.0799Z" fill="#7645D9"/>
</g>
</g>
<defs>
<linearGradient id="paint0_linear" x1="31.2115" y1="29.9293" x2="38.4171" y2="56.8207" gradientUnits="userSpaceOnUse">
<stop stop-color="#53DEE9"/>
<stop offset="1" stop-color="#1FC7D4"/>
</linearGradient>
<linearGradient id="paint1_linear" x1="34.8059" y1="15.6037" x2="31.9071" y2="26.4221" gradientUnits="userSpaceOnUse">
<stop stop-color="#53DEE9"/>
<stop offset="1" stop-color="#1FC7D4"/>
</linearGradient>
<clipPath id="clip0">
<rect width="64" height="64" fill="white"/>
</clipPath>
</defs>
</svg>

<svg xmlns="http://www.w3.org/2000/svg" width="64" height="64" fill="none"  xmlns:v="https://vecta.io/nano"><style><![CDATA[.B{fill-rule:evenodd}.C{fill:#7645d9}]]></style><g clip-path="url(#C)"><g class="B C"><path d="M43.194 10.691a1.53 1.53 0 1 1 1.421 2.611l-6.119 1.64 4.698-4.25zm5.919-.177a5.07 5.07 0 0 0-8.291-2.445l-9.802 8.868c-1.46 1.321-.158 3.712 1.744 3.203l12.768-3.421c2.702-.724 4.306-3.502 3.582-6.204z"/><path d="M30.189 8.084a1.66 1.66 0 1 0-2.754 1.683l4.864 4.864-2.11-6.547zm-5.469-3.38c2.908-2.908 7.862-1.712 9.124 2.202l4.403 13.66c.656 2.035-1.867 3.577-3.378 2.065L24.72 12.482a5.5 5.5 0 0 1 0-7.778z"/></g><g fill="#53dee9"><path opacity=".6" d="M7.276 34.043a1.02 1.02 0 0 1-1.966 0l-.796-3.032c-.093-.355-.37-.632-.725-.725l-3.032-.796a1.02 1.02 0 0 1 0-1.966l3.032-.796c.355-.093.632-.37.725-.725l.796-3.032a1.02 1.02 0 0 1 1.966 0l.796 3.032c.093.355.37.632.725.725l3.032.796a1.02 1.02 0 0 1 0 1.966l-3.032.796c-.355.093-.632.37-.725.725l-.796 3.032z"/><path d="M9.62 11.664a.6.6 0 0 1-1.113.298l-.911-1.596c-.107-.187-.305-.302-.52-.3l-1.837.009a.6.6 0 0 1-.298-1.113l1.596-.911c.187-.107.302-.305.3-.52l-.009-1.838a.6.6 0 0 1 1.113-.298l.911 1.596c.107.187.305.302.52.3l1.837-.009a.6.6 0 0 1 .298 1.113l-1.596.911c-.187.107-.302.305-.3.52l.009 1.838z"/><path opacity=".8" d="M53.871 15.786a.58.58 0 0 1 0-1.118l3.093-.812a.58.58 0 0 0 .412-.412l.812-3.093a.58.58 0 0 1 1.118 0l.812 3.093a.58.58 0 0 0 .412.412l3.093.812a.58.58 0 0 1 0 1.118l-3.093.812a.58.58 0 0 0-.412.412l-.812 3.093a.58.58 0 0 1-1.118 0l-.812-3.093c-.053-.202-.21-.359-.412-.412l-3.093-.812z"/></g><path d="M51.083 29.906a5.12 5.12 0 0 0-6.271-3.62l-27.2 7.288a5.12 5.12 0 0 0-3.62 6.271l4.555 17a5.12 5.12 0 0 0 6.271 3.62l27.2-7.288a5.12 5.12 0 0 0 3.62-6.271l-4.555-17z" fill="url(#A)"/><g class="C"><path d="M18.274 36.046l27.201-7.288a2.56 2.56 0 0 1 3.135 1.81l4.555 17a2.56 2.56 0 0 1-1.81 3.135l-27.2 7.288a2.56 2.56 0 0 1-3.135-1.81l-4.555-17a2.56 2.56 0 0 1 1.81-3.135zm26.538-9.761a5.12 5.12 0 0 1 6.271 3.62l4.555 17a5.12 5.12 0 0 1-3.62 6.271l-27.2 7.288a5.12 5.12 0 0 1-6.271-3.62l-4.555-17a5.12 5.12 0 0 1 3.62-6.271l27.2-7.288z" class="B"/><path d="M35.23 28.853l-8.036 2.153 7.206 26.891 8.036-2.153-7.206-26.891z"/><path d="M54.517 42.402l-2.153-8.036-37.253 9.982 2.153 8.036 37.253-9.982z"/></g><g style="mix-blend-mode:multiply" class="B C"><path d="M39.926 46.324l-8.065 2.161.331 1.236 8.065-2.161-.331-1.236zm-10.224-5.898l8.065-2.161-.331-1.236-8.065 2.161.331 1.236z"/></g><path d="M54.831 24.945a3.84 3.84 0 0 0-2.715-4.703l-34.619-9.276a3.84 3.84 0 0 0-4.703 2.715l-.911 3.4a3.84 3.84 0 0 0 2.715 4.703l34.619 9.276a3.84 3.84 0 0 0 4.703-2.715l.911-3.4z" fill="url(#B)"/><g class="C"><path d="M16.834 13.438l34.619 9.276a1.28 1.28 0 0 1 .905 1.568l-.911 3.4a1.28 1.28 0 0 1-1.568.905L15.26 19.311a1.28 1.28 0 0 1-.905-1.568l.911-3.4a1.28 1.28 0 0 1 1.568-.905zm35.281 6.803a3.84 3.84 0 0 1 2.715 4.703l-.911 3.4a3.84 3.84 0 0 1-4.703 2.715l-34.619-9.276a3.84 3.84 0 0 1-2.715-4.703l.911-3.4a3.84 3.84 0 0 1 4.703-2.715l34.619 9.276z" class="B"/><path d="M38.824 16.68l-8.036-2.153-2.899 10.818 8.037 2.153 2.899-10.818z"/></g><g style="mix-blend-mode:multiply" class="B C"><path d="M38.426 18.08l-8-2.24.32-1.44 8.136 2.257-.456 1.423z"/></g></g><defs><linearGradient id="A" x1="31.212" y1="29.929" x2="38.417" y2="56.821" gradientUnits="userSpaceOnUse"><stop stop-color="#53dee9"/><stop offset="1" stop-color="#1fc7d4"/></linearGradient><linearGradient id="B" x1="34.806" y1="15.604" x2="31.907" y2="26.422" gradientUnits="userSpaceOnUse"><stop stop-color="#53dee9"/><stop offset="1" stop-color="#1fc7d4"/></linearGradient><clipPath id="C"><path fill="#fff" d="M0 0h64v64H0z"/></clipPath></defs></svg>
